assets/stickers/emoticons/stickers/imgly_sticker_emoticons_deceased.svg

<svg height="58" viewBox="0 0 62 58" width="62" xmlns="http://www.w3.org/2000/svg"><g fill="none"><path d="m61.3 34.5c0 13-11.9 23.5-30.3 23.5s-30.3-10.5-30.3-23.5 11.9-32.5 30.3-32.5 30.3 19.5 30.3 32.5z" fill="#f7910b"/><path d="m61.3 34.5c0 13-11.9 19.5-30.3 19.5s-30.3-6.5-30.3-19.5 11.9-34.5 30.3-34.5 30.3 21.5 30.3 34.5z" fill="#f7910b"/><path d="m31 0c18.4 0 30.3 21.5 30.3 34.5s-11.9 19.5-30.3 19.5" fill="#f9a908"/><path d="m61.3 34.5c0 13-11.9 19.5-30.3 19.5s-30.3-6.5-30.3-19.5 11.9-32.5 30.3-32.5 30.3 19.5 30.3 32.5z" fill="#f9a908"/><path d="m.7 34.5c0-13 11.9-32.5 30.3-32.5" fill="#f9c55d"/><path d="m31 2c18.4 0 30.3 19.5 30.3 32.5s-11.9 23.5-30.3 23.5" fill="#f7910b"/><path d="m31 2c18.4 0 30.3 19.5 30.3 32.5" fill="#ea7103"/><g fill="#19bca4" transform="translate(18 11)"><path d="m6.7 2c0 .9-1.4.5-3.3.6-1.8.1-3.3.6-3.3-.3s1.4-1.6 3.2-1.7c1.9-.1 3.4.5 3.4 1.4z"/><path d="m19.3 2c0 .9 1.4.5 3.3.6 1.8.1 3.3.6 3.3-.3s-1.4-1.6-3.2-1.7c-1.9-.1-3.4.5-3.4 1.4z"/></g><g fill="#109da0" transform="translate(18 13)"><path d="m6.7 0c0 .9-1.4.5-3.3.6-1.8.1-3.3.6-3.3-.3"/><path d="m19.3 0c0 .9 1.4.5 3.3.6 1.8.1 3.3.6 3.3-.3"/></g><g transform="translate(11 25)"><path d="m15.8 2.8c0 1.2-3.5.7-7.8.7s-7.8.6-7.8-.7c0-1.2 3.5-2.2 7.8-2.2s7.8 1 7.8 2.2z" fill="#f9c55d"/><path d="m39.8 2.8c0 1.2-3.5.7-7.8.7s-7.8.6-7.8-.7c0-1.2 3.5-2.2 7.8-2.2s7.8 1 7.8 2.2z" fill="#f9a908"/></g><circle cx="9.3" cy="31.5" fill="#f7910b" r="1"/><circle cx="4.8" cy="33.5" fill="#f7910b" r="1.1"/><circle cx="7.8" cy="29.5" fill="#f7910b" r="1"/><circle cx="12.4" cy="31.3" fill="#f7910b" r="1"/><circle cx="51.6" cy="31.8" fill="#f9a908" r="1"/><circle cx="54.1" cy="33.2" fill="#f9a908" r="1"/><circle cx="48.8" cy="24.4" fill="#f9a908" r="1"/><circle cx="48.3" cy="36" fill="#f9a908" r="1.3"/><circle cx="55.5" cy="36.1" fill="#f9a908" r="1"/><circle cx="8.3" cy="35.5" fill="#f7910b" r="1"/><circle cx="9.1" cy="27.1" fill="#f7910b" r="1"/><g fill="#f9a908"><circle cx="3.8" cy="13.3" r="1.1"/><circle cx="7" cy="9.8" r="1"/><circle cx="58.2" cy="15.7" r="1"/><circle cx="57.4" cy="12.8" r="1"/><circle cx="60" cy="13.3" r="1"/><circle cx="5" cy="16.3" r="1"/></g><g fill="#00233f"><ellipse cx="5.97305" cy="5.48855" rx="5.899943" ry="1.799983" transform="matrix(.70710678 .70710678 -.70710678 .70710678 21.630457 13.383975)"/><ellipse cx="6.02665" cy="5.48885" rx="5.899943" ry="1.799983" transform="matrix(.70710678 -.70710678 .70710678 .70710678 13.883962 21.869132)"/><ellipse cx="5.97265" cy="5.48905" rx="5.899943" ry="1.799983" transform="matrix(.70710678 .70710678 -.70710678 .70710678 39.630693 13.384404)"/><ellipse cx="6.02625" cy="5.48825" rx="5.899943" ry="1.799983" transform="matrix(.70710678 -.70710678 .70710678 .70710678 31.884269 21.868673)"/></g><g transform="translate(24 28)"><path d="m12.2 15.4c0 2.4-2.3 4.3-5.2 4.3s-5.2-1.9-5.2-4.3" fill="#f7910b"/><path d="m13.4 9.5c0 6.1-2.9 8.5-6.4 8.5s-6.4-2.4-6.4-8.5 2.9-9.3 6.4-9.3c3.5-.1 6.4 3.1 6.4 9.3z" fill="#c42260"/><path d="m13.3 11.2c-.8-.3-1.6-.4-2.5-.4-1.4 0-2.7.4-3.8 1.1-1.1-.7-2.4-1.1-3.8-1.1-.9 0-1.7.2-2.5.4.5 4.8 3.1 6.8 6.3 6.8s5.8-2 6.3-6.8z" fill="#e2446e"/><path d="m13.2 7c-.8-5-3.3-6.9-6.2-6.9s-5.5 1.9-6.2 6.9z" fill="#99144a"/></g></g></svg>

<?xml version="1.0" encoding="UTF-8"?>
<svg width="62px" height="58px" viewBox="0 0 62 58" version="1.1" xmlns="http://www.w3.org/2000/svg" xmlns:xlink="http://www.w3.org/1999/xlink">
    <!-- Generator: Sketch 43.1 (39012) - http://www.bohemiancoding.com/sketch -->
    <title>imgly_sticker_emoticons_deceased</title>
    <desc>Created with Sketch.</desc>
    <defs></defs>
    <g id="Page-1" stroke="none" stroke-width="1" fill="none" fill-rule="evenodd">
        <g id="deceased" fill-rule="nonzero">
            <g id="Group">
                <path d="M61.3,34.5 C61.3,47.5 49.4,58 31,58 C12.6,58 0.7,47.5 0.7,34.5 C0.7,21.5 12.6,2 31,2 C49.4,2 61.3,21.5 61.3,34.5 Z" id="Shape" fill="#F7910B"></path>
                <path d="M61.3,34.5 C61.3,47.5 49.4,54 31,54 C12.6,54 0.7,47.5 0.7,34.5 C0.7,21.5 12.6,0 31,0 C49.4,0 61.3,21.5 61.3,34.5 Z" id="Shape" fill="#F7910B"></path>
                <path d="M31,0 C49.4,0 61.3,21.5 61.3,34.5 C61.3,47.5 49.4,54 31,54" id="Shape" fill="#F9A908"></path>
                <path d="M61.3,34.5 C61.3,47.5 49.4,54 31,54 C12.6,54 0.7,47.5 0.7,34.5 C0.7,21.5 12.6,2 31,2 C49.4,2 61.3,21.5 61.3,34.5 Z" id="Shape" fill="#F9A908"></path>
                <path d="M0.7,34.5 C0.7,21.5 12.6,2 31,2" id="Shape" fill="#F9C55D"></path>
                <path d="M31,2 C49.4,2 61.3,21.5 61.3,34.5 C61.3,47.5 49.4,58 31,58" id="Shape" fill="#F7910B"></path>
                <path d="M31,2 C49.4,2 61.3,21.5 61.3,34.5" id="Shape" fill="#EA7103"></path>
                <g transform="translate(18.000000, 11.000000)" id="Shape" fill="#19BCA4">
                    <path d="M6.7,2 C6.7,2.9 5.3,2.5 3.4,2.6 C1.6,2.7 0.1,3.2 0.1,2.3 C0.1,1.4 1.5,0.7 3.3,0.6 C5.2,0.5 6.7,1.1 6.7,2 Z"></path>
                    <path d="M19.3,2 C19.3,2.9 20.7,2.5 22.6,2.6 C24.4,2.7 25.9,3.2 25.9,2.3 C25.9,1.4 24.5,0.7 22.7,0.6 C20.8,0.5 19.3,1.1 19.3,2 Z"></path>
                </g>
                <g transform="translate(18.000000, 13.000000)" id="Shape" fill="#109DA0">
                    <path d="M6.7,0 C6.7,0.9 5.3,0.5 3.4,0.6 C1.6,0.7 0.1,1.2 0.1,0.3"></path>
                    <path d="M19.3,0 C19.3,0.9 20.7,0.5 22.6,0.6 C24.4,0.7 25.9,1.2 25.9,0.3"></path>
                </g>
                <g transform="translate(11.000000, 25.000000)" id="Shape">
                    <path d="M15.8,2.8 C15.8,4 12.3,3.5 8,3.5 C3.7,3.5 0.2,4.1 0.2,2.8 C0.2,1.6 3.7,0.6 8,0.6 C12.3,0.6 15.8,1.6 15.8,2.8 Z" fill="#F9C55D"></path>
                    <path d="M39.8,2.8 C39.8,4 36.3,3.5 32,3.5 C27.7,3.5 24.2,4.1 24.2,2.8 C24.2,1.6 27.7,0.6 32,0.6 C36.3,0.6 39.8,1.6 39.8,2.8 Z" fill="#F9A908"></path>
                </g>
                <circle id="Oval" fill="#F7910B" cx="9.3" cy="31.5" r="1"></circle>
                <circle id="Oval" fill="#F7910B" cx="4.8" cy="33.5" r="1.1"></circle>
                <circle id="Oval" fill="#F7910B" cx="7.8" cy="29.5" r="1"></circle>
                <circle id="Oval" fill="#F7910B" cx="12.4" cy="31.3" r="1"></circle>
                <circle id="Oval" fill="#F9A908" cx="51.6" cy="31.8" r="1"></circle>
                <circle id="Oval" fill="#F9A908" cx="54.1" cy="33.2" r="1"></circle>
                <circle id="Oval" fill="#F9A908" cx="48.8" cy="24.4" r="1"></circle>
                <circle id="Oval" fill="#F9A908" cx="48.3" cy="36" r="1.3"></circle>
                <circle id="Oval" fill="#F9A908" cx="55.5" cy="36.1" r="1"></circle>
                <circle id="Oval" fill="#F7910B" cx="8.3" cy="35.5" r="1"></circle>
                <circle id="Oval" fill="#F7910B" cx="9.1" cy="27.1" r="1"></circle>
                <circle id="Oval" fill="#F9A908" cx="3.8" cy="13.3" r="1.1"></circle>
                <circle id="Oval" fill="#F9A908" cx="7" cy="9.8" r="1"></circle>
                <circle id="Oval" fill="#F9A908" cx="58.2" cy="15.7" r="1"></circle>
                <circle id="Oval" fill="#F9A908" cx="57.4" cy="12.8" r="1"></circle>
                <circle id="Oval" fill="#F9A908" cx="60" cy="13.3" r="1"></circle>
                <circle id="Oval" fill="#F9A908" cx="5" cy="16.3" r="1"></circle>
                <g transform="translate(16.000000, 16.000000)" id="Oval" fill="#00233F">
                    <g>
                        <ellipse transform="translate(5.973050, 5.488550) rotate(45.000000) translate(-5.973050, -5.488550) " cx="5.97305" cy="5.48855" rx="5.89994342" ry="1.79998274"></ellipse>
                        <ellipse transform="translate(6.026650, 5.488850) rotate(-45.000000) translate(-6.026650, -5.488850) " cx="6.02665" cy="5.48885" rx="5.89994342" ry="1.79998274"></ellipse>
                    </g>
                    <g transform="translate(18.000000, 0.000000)">
                        <ellipse transform="translate(5.972650, 5.489050) rotate(45.000000) translate(-5.972650, -5.489050) " cx="5.97265" cy="5.48905" rx="5.89994342" ry="1.79998274"></ellipse>
                        <ellipse transform="translate(6.026250, 5.488250) rotate(-45.000000) translate(-6.026250, -5.488250) " cx="6.02625" cy="5.48825" rx="5.89994342" ry="1.79998274"></ellipse>
                    </g>
                </g>
            </g>
            <g id="Group" transform="translate(24.000000, 28.000000)">
                <path d="M12.2,15.4 C12.2,17.8 9.9,19.7 7,19.7 C4.1,19.7 1.8,17.8 1.8,15.4" id="Shape" fill="#F7910B"></path>
                <g id="Shape">
                    <path d="M13.4,9.5 C13.4,15.6 10.5,18 7,18 C3.5,18 0.6,15.6 0.6,9.5 C0.6,3.4 3.5,0.2 7,0.2 C10.5,0.1 13.4,3.3 13.4,9.5 Z" fill="#C42260"></path>
                    <path d="M13.3,11.2 C12.5,10.9 11.7,10.8 10.8,10.8 C9.4,10.8 8.1,11.2 7,11.9 C5.9,11.2 4.6,10.8 3.2,10.8 C2.3,10.8 1.5,11 0.7,11.2 C1.2,16 3.8,18 7,18 C10.2,18 12.8,16 13.3,11.2 Z" fill="#E2446E"></path>
                    <path d="M13.2,7 C12.4,2 9.9,0.1 7,0.1 C4.1,0.1 1.5,2 0.8,7 L13.2,7 Z" fill="#99144A"></path>
                </g>
            </g>
        </g>
    </g>
</svg>
